assets/icons/informations/cancel.svg

<svg viewBox="0 0 24 24" xmlns="http://www.w3.org/2000/svg">
<path d="M7.7 16.3C7.88333 16.4833 8.11667 16.575 8.4 16.575C8.68333 16.575 8.91667 16.4833 9.1 16.3L12 13.4L14.925 16.325C15.1083 16.5083 15.3377 16.5957 15.613 16.587C15.8877 16.579 16.1167 16.4833 16.3 16.3C16.4833 16.1167 16.575 15.8833 16.575 15.6C16.575 15.3167 16.4833 15.0833 16.3 14.9L13.4 12L16.325 9.075C16.5083 8.89167 16.5957 8.66233 16.587 8.387C16.579 8.11233 16.4833 7.88333 16.3 7.7C16.1167 7.51667 15.8833 7.425 15.6 7.425C15.3167 7.425 15.0833 7.51667 14.9 7.7L12 10.6L9.075 7.675C8.89167 7.49167 8.66267 7.404 8.388 7.412C8.11267 7.42067 7.88333 7.51667 7.7 7.7C7.51667 7.88333 7.425 8.11667 7.425 8.4C7.425 8.68333 7.51667 8.91667 7.7 9.1L10.6 12L7.675 14.925C7.49167 15.1083 7.40433 15.3373 7.413 15.612C7.421 15.8873 7.51667 16.1167 7.7 16.3ZM12 22C10.6167 22 9.31667 21.7373 8.1 21.212C6.88333 20.6873 5.825 19.975 4.925 19.075C4.025 18.175 3.31267 17.1167 2.788 15.9C2.26267 14.6833 2 13.3833 2 12C2 10.6167 2.26267 9.31667 2.788 8.1C3.31267 6.88333 4.025 5.825 4.925 4.925C5.825 4.025 6.88333 3.31233 8.1 2.787C9.31667 2.26233 10.6167 2 12 2C13.3833 2 14.6833 2.26233 15.9 2.787C17.1167 3.31233 18.175 4.025 19.075 4.925C19.975 5.825 20.6873 6.88333 21.212 8.1C21.7373 9.31667 22 10.6167 22 12C22 13.3833 21.7373 14.6833 21.212 15.9C20.6873 17.1167 19.975 18.175 19.075 19.075C18.175 19.975 17.1167 20.6873 15.9 21.212C14.6833 21.7373 13.3833 22 12 22Z" fill="inherit"/>
</svg>

<svg viewBox="0 0 24 24" xmlns="http://www.w3.org/2000/svg"><path d="M7.7 16.3c.2.2.4.3.7.3.3 0 .5-.1.7-.3l2.9-2.9 3 3 .6.2c.3 0 .5-.1.7-.3.2-.2.3-.4.3-.7 0-.3-.1-.5-.3-.7L13.4 12l3-3 .2-.6a1 1 0 0 0-.3-.7 1 1 0 0 0-.7-.3 1 1 0 0 0-.7.3L12 10.6l-3-3a.9.9 0 0 0-.6-.2 1 1 0 0 0-.7.3 1 1 0 0 0-.3.7c0 .3.1.5.3.7l2.9 2.9-3 3-.2.6c0 .3.1.5.3.7ZM12 22a9.7 9.7 0 0 1-7-3A10 10 0 0 1 2.7 8.2 10 10 0 0 1 12 2a9.7 9.7 0 0 1 7 3 10 10 0 0 1 2.2 10.9A10 10 0 0 1 12 22Z" fill="inherit"/></svg>
